X: 1
T: Hunter, The
M: 4/4
L: 1/8
R: reel
K: Cmaj
ef|:gage fgfd|efec dedB|cG, (3G,G,G, A,B,CD|(3ggg fe d2 ef|
gage fgfd|efec dedB|cG, (3G,G,G, ABcA|1GcBd c2 ef:|2GcBd c2 gf||
ef (3gfg dg (3gfg|gafg efde|cG (3GGG EG (3GGG|cEGc Bz (3G,A,B,|
CDEF GEFG|ABcd efge|fgef decd|1GcBd c2 gf:|2GcBd c2ef||
